X:91
T:Crooked Road, The
T:Crooked Road to Dublin, The
R:reel
Z:id:hn-reel-91
M:C|
K:G
G2~G2 FGAF|G2FG AdcA|G2AG FGAg|1 fdcA dBcA:|2 fdcA d2Bc||
dg~g2 fgaf|dg~g2 agfe|dg~g2 fgag|fdcA d2Bc|
dg~g2 fgaf|dg~g2 a2ga|bgaf gbag|fdcA dBcA||
P:Variations:
G2BG FGAF|G2Ac BdcA|GBAG FGAg|1 fdcA dBcA:|2 fdcA dBcA||
dg~g2 fgaf|dg~g2 agfe|dg~g2 fgag|fdcA dBcA|
dg~g2 fgaf|dg~g2 faga|b2af gbag|fdcA dBcA||
<end>
<start>
